assets/icons/clipboard-outline.svg

<svg viewBox="0 0 24 24" xmlns="http://www.w3.org/2000/svg"><path d="m0 0h24v24h-24z" opacity="0"/><path d="m18 5v-1a2 2 0 0 0 -2-2h-8a2 2 0 0 0 -2 2v1a3 3 0 0 0 -3 3v11a3 3 0 0 0 3 3h12a3 3 0 0 0 3-3v-11a3 3 0 0 0 -3-3zm-10-1h8v4h-8zm11 15a1 1 0 0 1 -1 1h-12a1 1 0 0 1 -1-1v-11a1 1 0 0 1 1-1v1a2 2 0 0 0 2 2h8a2 2 0 0 0 2-2v-1a1 1 0 0 1 1 1z"/></svg>

<svg xmlns="http://www.w3.org/2000/svg" viewBox="0 0 24 24"><g data-name="Layer 2"><g data-name="clipboard"><rect width="24" height="24" opacity="0"/><path d="M18 5V4a2 2 0 0 0-2-2H8a2 2 0 0 0-2 2v1a3 3 0 0 0-3 3v11a3 3 0 0 0 3 3h12a3 3 0 0 0 3-3V8a3 3 0 0 0-3-3zM8 4h8v4H8V4zm11 15a1 1 0 0 1-1 1H6a1 1 0 0 1-1-1V8a1 1 0 0 1 1-1v1a2 2 0 0 0 2 2h8a2 2 0 0 0 2-2V7a1 1 0 0 1 1 1z"/></g></g></svg>
